!!!!SEGMENT: Ric3012-Il_nest_si_doulce_vie.krn
!!!id: Ric3012
!!!AGN: Chanson
!!!voices: 4
!!!COM: Jean Richafort
!!!OTL: Il n'est si doulce vie
**kern	**kern	**kern	**kern
*part4	*part3	*part2	*part1
*staff4	*staff3	*staff2	*staff1
*I"Bassus	*I"Tenor	*I"Altus	*I"Superius
*I'B	*I'T	*I'A	*I'S
*clefF4	*clefGv2	*clefGv2	*clefG2
*k[b-]	*k[b-]	*k[b-]	*k[b-]
*F:	*F:	*F:	*F:
*M2/1	*M2/1	*M2/1	*M2/1
*met(C|)	*met(C|)	*met(C|)	*met(C|)
=1	=1	=1	=1
1r	0F	0c	1r
2r	.	.	2r
2F	.	.	2f
=2	=2	=2	=2
2BB-y	1B-y	2.d	2f
2BB-y	.	.	2f
.	.	4c	.
2BB-y	1d	2B-y	2f
2BB-y	.	2B-y	2g
=3	=3	=3	=3
1F	1.c	1A	2a
.	.	.	4g
.	.	.	4f
1C	.	1G	4e
.	.	.	4d
.	2B-y	.	[2g
=4	=4	=4	=4
1r	2.A	1r	4g]
.	.	.	4f
.	.	.	1f
.	8GL	.	.
.	8FJ	.	.
2r	1G	2r	.
2C	.	2c	2e
=5	=5	=5	=5
2F	1F	2c	1f
2BB-y	.	2B-y	.
2.F	2r	2.A	2r
.	2f	.	2a
4G	.	4B-y	.
=6	=6	=6	=6
2A	1.f	2c	2a
2B-y	.	2d	4f
.	.	.	4g
1F	.	1c	4a
.	.	.	4b-y
.	2e	.	[2cc
=7	=7	=7	=7
1BB-y	2d	2r	2cc]
.	4c	2f	1b-y
.	4B-y	.	.
1F	2c	2f	.
.	2c	2e	2a
=8	=8	=8	=8
2r	1B-y	2.d	1b-y
2B-y	.	.	.
.	.	4B-y	.
2B-y	2r	1c	1r
2A	2F	.	.
=9	=9	=9	=9
2.G	1B-y	0d	2r
.	.	.	2b-y
4F	.	.	.
2D	2r	.	2b-y
2F	2F	.	2a
=10	=10	=10	=10
2.E-X	2.B-y	2r	2g
.	.	2G	2.b-y
4D	4c	.	.
2BB-y	2d	1B-y	.
.	.	.	4a
2B-y	2d	.	[2f
=11	=11	=11	=11
2B-y	1.c	2r	4f]
.	.	.	4g
2A	.	2F	2a
2.G	.	2.B-y	2d
.	2B-y	.	[2g
4F	.	4c	.
=12	=12	=12	=12
2D	2A	2d	4g]
.	.	.	4f
2F	4G	2.c	1f
.	4F	.	.
1C	1G	.	.
.	.	4B-y	.
.	.	2G	2e
=13	=13	=13	=13
2r	1F	1A	0f
2c	.	.	.
2B-y	2r	2r	.
2A	2F	2c	.
=14	=14	=14	=14
2.G	1B-y	0d	2r
.	.	.	2b-y
4F	.	.	.
2D	2r	.	2b-y
2F	2F	.	2a
=15	=15	=15	=15
2.E-X	2.B-y	2r	2g
.	.	2G	2.b-y
4D	4c	.	.
2BB-y	2d	1B-y	.
.	.	.	4a
2B-y	2d	.	[2f
=16	=16	=16	=16
2B-y	1.c	2r	4f]
.	.	.	4g
2A	.	2F	2a
2.G	.	2.B-y	2d
.	2B-y	.	[2g
4F	.	4c	.
=17	=17	=17	=17
2D	2A	2d	4g]
.	.	.	4f
2F	4G	2.c	1f
.	4F	.	.
1C	1G	.	.
.	.	4B-y	.
.	.	2G	2e
=18	=18	=18	=18
1F	0F	2.A	0f
.	.	4B-y	.
2r	.	2c	.
2BB-y	.	[2d	.
=19	=19	=19	=19
2F	1r	2d]	1r
2F	.	4c	.
.	.	4B-y	.
2A	2r	1c	2r
2A	2F	.	2c
=20	=20	=20	=20
2.G	1B-y	1r	2d
.	.	.	2e
4F	.	.	.
4D	1d	2r	2f
4E	.	.	.
[2F	.	2f	[2a
=21	=21	=21	=21
2F]	1.c	2f	2a]
4E	.	2f	4g
4D	.	.	4f
2C	.	2.e	2a
2E	2B-y	.	[2g
.	.	4d	.
=22	=22	=22	=22
1F	2A	1c	4g]
.	.	.	4f
.	4G	.	1f
.	4F	.	.
1C	1G	2c	.
.	.	2c	2e
=23	=23	=23	=23
2r	1F	2.c	1f
2c	.	.	.
.	.	4B-y	.
2.c	2r	2A	2r
.	2f	2F	2a
4B-y	.	.	.
=24	=24	=24	=24
2A	1.f	1c	2a
2F	.	.	2a
1c	.	1r	2g
.	2e	.	[2cc
=25	=25	=25	=25
0F	2d	2r	4cc]
.	.	.	4b-y
.	4c	2f	1b-y
.	4B-y	.	.
.	2c	2.f	.
.	2c	.	2a
.	.	4e	.
=26	=26	=26	=26
2r	1B-y	2d	2b-y
2BB-y	.	2c	2f
1BB-y	2r	2B-y	1b-y
.	2F	2d	.
=27	=27	=27	=27
2r	1B-y	1d	2r
2BB-y	.	.	2f
1BB-y	2r	2r	1b-y
.	2F	2d	.
=28	=28	=28	=28
2r	2.B-y	1d	2r
2BB-y	.	.	2f
.	4c	.	.
2BB-y	2d	2r	2.f
2BB-y	2d	2B-y	.
.	.	.	4e
=29	=29	=29	=29
2F	1.c	2A	2f
2E	.	2G	2g
1D	.	2F	2a
.	2B-y	[2f	2b-y
=30	=30	=30	=30
0C	2A	2f]	0cc
.	4G	4e	.
.	4F	4d	.
.	1G	1e	.
=31	=31	=31	=31
2r	1F	1f	2r
2BB-y	.	.	2f
1BB-y	2r	2r	1b-y
.	2F	2d	.
=32	=32	=32	=32
2r	1B-y	1d	2r
2BB-y	.	.	2f
1BB-y	2r	2r	1b-y
.	2F	2d	.
=33	=33	=33	=33
2r	2.B-y	1d	2r
2BB-y	.	.	2f
.	4c	.	.
2BB-y	2d	2r	2.f
2BB-y	2d	2B-y	.
.	.	.	4e
=34	=34	=34	=34
2F	1.c	2A	2f
2E	.	2G	2g
1D	.	2F	2a
.	2B-y	[2f	2b-y
=35	=35	=35	=35
0C	2.A	2f]	1cc
.	.	4e	.
.	8GL	4d	.
.	8FJ	.	.
.	1G	1e	4cc
.	.	.	4b-y
.	.	.	4a
.	.	.	4g
=36	=36	=36	=36
2r	0F	1f	0a
2F	.	.	.
2.A	.	2r	.
.	.	2F	.
4B-y	.	.	.
=37	=37	=37	=37
2c	1r	2.A	0r
1F	.	.	.
.	.	4B-y	.
.	2r	2c	.
4E	2F	2d	.
4D	.	.	.
=38	=38	=38	=38
1E	1B-y	1G	1r
2D	1d	2A	2r
2D	.	2f	2f
=39	=39	=39	=39
2.F	1.c	1.f	2.a
4E	.	.	4g
2F	.	.	2a
2BB-y	2B-y	2d	[2g
=40	=40	=40	=40
1D	2A	2d	4g]
.	.	.	4f
.	4G	2B-y	1f
.	4F	.	.
1C	1G	4c	.
.	.	4B-y	.
.	.	4A	2e
.	.	4G	.
=41	=41	=41	=41
2r	1F	2A	1f
2F	.	2A	.
2F	2r	2A	2f
2D	2f	2F	2f
=42	=42	=42	=42
2BB-y	1.f	2B-y	2d
1B-y	.	2B-y	4c
.	.	.	4B-y
.	.	1F	2c
2A	2e	.	2c
=43	=43	=43	=43
2B-y	2d	1B-y	2B-y
2BB-y	4c	.	2.b-y
.	4B-y	.	.
1F	2c	2r	.
.	.	.	4a
.	2c	2c	4a
.	.	.	8gL
.	.	.	8aJ
=44	=44	=44	=44
2r	1B-y	1d	2b-y
2BB-y	.	.	2f
1F	2r	2r	1f
.	2F	2c	.
=45	=45	=45	=45
2r	1B-y	1d	2r
2BB-y	.	.	2f
1F	2r	2r	1f
.	2F	2c	.
=46	=46	=46	=46
2r	2.B-y	1d	2r
2BB-y	.	.	2f
.	4c	.	.
2B-y	2d	1r	2.f
2B-y	2d	.	.
.	.	.	4g
=47	=47	=47	=47
2.A	1.c	2r	2a
.	.	2F	2a
8GL	.	.	.
8FJ	.	.	.
4E	.	2G	4g
4D	.	.	4f
2E	2B-y	2G	4e
.	.	.	4d
=48	=48	=48	=48
2F	2A	2A	2c
2D	4G	2B-y	1f
.	4F	.	.
1C	2G	1c	.
.	2G	.	2e
=49	=49	=49	=49
2F	1F	1A	2f
2D	.	.	2f
1F	2r	2r	1f
.	2F	2c	.
=50	=50	=50	=50
2r	1B-y	1d	2r
2BB-y	.	.	2f
1F	2r	2r	1f
.	2F	2c	.
=51	=51	=51	=51
2r	2.B-y	1d	2r
2BB-y	.	.	2f
.	4c	.	.
2B-y	2d	1r	2.f
2B-y	2d	.	.
.	.	.	4g
=52	=52	=52	=52
2.A	1.c	2r	2a
.	.	2F	2a
8GL	.	.	.
8FJ	.	.	.
4E	.	2G	4g
4D	.	.	4f
2E	2B-y	2G	4e
.	.	.	4d
=53	=53	=53	=53
2F	2A	2A	2c
2D	4G	2B-y	1f
.	4F	.	.
1C	1G	1c	.
.	.	.	2e
=54	=54	=54	=54
00Fl	00Fl	00Al	00fl
==	==	==	==
*-	*-	*-	*-
!!!system-decoration: [*]
!!!RDF**kern: i = editorial accidental
!!!RDF**kern: l = terminal long
!!!ENC: Benjamin Ory
!!!END: 2024/12/7
!!!EED: Benjamin Ory
!!!EEV: 2024/12/07
!!!YEC: Copyright 2024 Benjamin Ory, All Rights Reserved
!!!ONB: Translated from MusicXML on 2024/12/07